img/icn_ball.svg

<svg width="20" height="20" viewBox="0 0 20 20" fill="none" xmlns="http://www.w3.org/2000/svg">
<path fill-rule="evenodd" clip-rule="evenodd" d="M0.354447 12.6333C0.812851 14.3107 1.69676 15.8136 2.88424 17.0177C2.8953 17.0315 2.90663 17.0439 2.92018 17.0553C4.14858 18.2878 5.69604 19.2013 7.42597 19.6627C7.44146 19.6685 7.45694 19.6732 7.47297 19.676C8.28057 19.8869 9.12715 20 10 20C10.8764 20 11.7266 19.8858 12.537 19.6729L12.5425 19.6714L12.5522 19.6685C14.2912 19.209 15.8462 18.2928 17.0798 17.055C17.0934 17.0436 17.1047 17.0312 17.1158 17.0174C18.8977 15.2106 20 12.732 20 10.0001C20 9.09468 19.877 8.21797 19.6503 7.38357L19.6481 7.37475C19.6463 7.36822 19.6443 7.36179 19.6422 7.35509C19.183 5.68352 18.3013 4.18557 17.1177 2.98484C17.1058 2.96991 17.0936 2.95636 17.079 2.94419C15.8462 1.70724 14.2921 0.791551 12.5544 0.332048C12.548 0.330112 12.5417 0.328177 12.5353 0.326518C11.7252 0.114185 10.8759 0 10.0003 0C9.12301 0 8.27228 0.114461 7.46109 0.327624C7.4554 0.328887 7.4502 0.330471 7.44474 0.332131L7.43952 0.333707C5.70406 0.793763 4.15217 1.7089 2.92073 2.94447C2.90663 2.95636 2.89474 2.96935 2.88341 2.98373C1.69372 4.19027 0.80898 5.69651 0.351406 7.37776C0.350023 7.38219 0.348641 7.38661 0.347535 7.39103C0.122204 8.22323 0 9.09744 0 10.0001C0 10.9006 0.121651 11.7729 0.345876 12.6034C0.348365 12.6139 0.351129 12.6233 0.354447 12.6333ZM3.22154 16.5706C2.15018 15.4655 1.34673 14.1006 0.914319 12.5802L2.24391 10.2772H5.87769L7.69443 13.4237L5.87769 16.5706H3.22154ZM10.0003 19.4473C10.7913 19.4473 11.5591 19.3483 12.2937 19.1645L13.6318 16.8471L11.8151 13.7002H8.18132L6.36457 16.8471L7.70218 19.1634C8.43817 19.3481 9.20761 19.4473 10.0003 19.4473ZM16.779 16.5706H14.1118L12.2951 13.4237L14.1118 10.2772H17.7456L19.0826 12.5935C18.6494 14.1083 17.8473 15.4686 16.779 16.5706ZM19.0826 7.4079C18.6494 5.89281 17.8473 4.53255 16.779 3.43051H14.1118L12.2951 6.57736L14.1118 9.72394H17.7456L19.0826 7.4079ZM7.70218 0.837722C8.43817 0.653036 9.20789 0.553782 10.0003 0.553782C10.791 0.553782 11.5588 0.65276 12.2934 0.836617L13.6318 3.15431L11.8151 6.30117H8.18132L6.36457 3.15404L7.70218 0.837722ZM5.87741 3.43051H3.22154C2.14991 4.53587 1.34646 5.90055 0.914042 7.42089L2.24363 9.72394H5.87741L7.69416 6.57736L5.87741 3.43051Z" fill="#979797"/>
</svg>

<svg width="20" height="20" fill="none" xmlns="http://www.w3.org/2000/svg"><path fill-rule="evenodd" clip-rule="evenodd" d="M.354 12.633a10.002 10.002 0 0 0 2.566 4.422 10.006 10.006 0 0 0 4.553 2.621 9.988 9.988 0 0 0 5.064-.003l.005-.002.01-.002a10.003 10.003 0 0 0 4.564-2.652 9.967 9.967 0 0 0 2.534-9.633l-.002-.01a10.002 10.002 0 0 0-2.57-4.43A10.001 10.001 0 0 0 12.555.332l-.019-.005a9.985 9.985 0 0 0-5.074 0l-.016.005-.005.002a10.002 10.002 0 0 0-4.557 2.65A10.002 10.002 0 0 0 .351 7.378l-.003.013a9.968 9.968 0 0 0 .006 5.242Zm2.868 3.938a9.448 9.448 0 0 1-2.308-3.99l1.33-2.304h3.634l1.816 3.147-1.816 3.147H3.222ZM10 19.447c.791 0 1.56-.099 2.294-.282l1.338-2.318-1.817-3.147H8.181l-1.816 3.147 1.337 2.316a9.429 9.429 0 0 0 2.298.284Zm6.779-2.876h-2.667l-1.817-3.147 1.817-3.147h3.634l1.337 2.317a9.45 9.45 0 0 1-2.304 3.977Zm2.304-9.163a9.45 9.45 0 0 0-2.304-3.977h-2.667l-1.817 3.146 1.817 3.147h3.634l1.337-2.316ZM7.703.838a9.431 9.431 0 0 1 4.59-.001l1.339 2.317-1.817 3.147H8.181L6.365 3.154 7.702.838ZM5.876 3.43H3.222A9.448 9.448 0 0 0 .914 7.42l1.33 2.303h3.633l1.817-3.147-1.817-3.146Z" fill="#979797"/></svg>
